X:1
T:Litaniae de nomine Jesu
T:Litaniae de nomine Jesu
T:Thomas Sailly
C:Thomas Sailly
%%score [ 1 2 3 4 ]
L:1/8
Q:1/4=120
M:4/4
K:C
V:1 treble nm="Soprano" snm="S"
V:2 treble nm="Alto" snm="A"
V:3 treble-8 nm="Tenor" snm="T"
V:4 bass nm="Bass" snm="B"
V:1
"^Source:Litaniae semen Deipare Virgine---Anvers---P.Phalesius---1598.\nEditor: André Vierendeels (14/12/95)""^Solo" c6 B2 | %1
w: Ky- ri-|
 A2 A2 ^G4 | A4"^Tutti" c4- | c2 B2 A2 A2 | ^G4 A4 |"^S" E4 F2 E2- | ED/C/ D2 E4 | E4"^T" E4 | %8
w: e e- lei-|son, Ky-|* ri- e e-|lei- son,|Chri- ste e-|* * * * lei-|son, Chri-|
 F2 E3 D/C/ D2 | E4 E2"^S" A2- | A2 A2 F2 G2 | A4 A2"^T" A2- | A2 A2 F2 G2 | A4 A2"^S" A2- | %14
w: ste e- * * *|lei- son, Ky-|* ri- e e-|lei- son, Ky-|* ri- e e-|lei- son, Chri-|
 A2 A2 G4 | G4 E2"^T" A2- | A2 A2 G4 | G4 ^F4 |"^S" c4 _B2 A2- | A2 A4 G2 | A4"^T" c4 | %21
w: * ste au-|di nos, Chri-|* ste au-|di nos,|Chri- ste ex-|* au- di-|nos, Chri-|
 _B2 A4 A2- | A2 G2 A4 |"^S" A4 A2 A2 | G2 A2 _B4 | A2 _B4 A2 | G2 ^F2 G4 | ^F4"^T" A4 | %28
w: ste ex- au-|* di nos,|Pa- ter de|Coe- lis De-|us, mi- se-|re- re no-|bis, Pa-|
 A2 A2 G2 A2 | _B4 A2 B2- | B2 A2 G2 ^F2 | G4 ^F4 |"^S" A4 A2 A2 | G2 ^F2 G2 G2 | A4 A2 F2- | %35
w: ter de Coe- lis|De- us, mi-|* se- re- re|no- bis,|Fi- li re-|dem- ptor mun- di|De- us, mi-|
 F2 F2 E2 D2 | D4 ^C4 |"^T" A4 A2 A2 | G2 ^F2 G2 G2 | A4 A2 F2- | F2 F2 E2 D2 | D4 ^C4 | %42
w: * se- re- re|no- bis,|Fi- li re-|dem- ptor mun- di-|De- us, mi-|* se- re- re|no- bis,|
"^S" E6 E2 | E2 F4 E2 | G4 G2 A2- | AA G2 F2 E2- | E2 D2 E4 |"^T" E6 E2 | E2 F4 E2 | G4 G2 A2- | %50
w: Spi- ri-|tus San- cte|De- us, mi-|* se- re- re no-|* * bis|Spi- ri-|tus San- cte|De- us, mi-|
 AA G2 F2 E2- | E2 D2 E4 |"^S" A4 A2 A2- | A^G G2 A2 B2 | c4 B2 A2- | A2 G2 G2 ^F2 | G4 E4 | %57
w: * se- re- re no-|* * bis,|San- cta Tri-|* ni- tas u- nus|De- us, mi-|* se- re- re|no- bis|
"^T" A4 A2 A2- | A^G G2 A2 B2 | c4 B2 A2- | A2 G2 G2 ^F2 | G4 E4 |"^S" A4 B2 B2- | B2 c2 A2 G2 | %64
w: San- cta Tri-|* ni- tas u- nus|De- us, mi-|* se- re- re|no- bis,|Je- su Fi-|* li De- i|
 A4 B2 c2- | c2 c2 BA A2- | A2"^#" G2 A4 |"^T" A4 A2 B2- | B2 c2 A2 G2 | A4 B2 c2- | c2 c2 BA A2- | %71
w: vi- vi, mi-|* se- re- re no-|* * bis,|Je- su Fi-|* li De- us|vi- vi, mi-|* se- re- re no-|
 A2 ^G2 A4 |"^S" ^F4 G2 A2- | A2 c2 B3 _B | A2 c4 _B2 | _B2 G2 A4 | ^F4"^T" F4 | %77
w: * * bis,|Je- su po-|* ten- tis- si-|me, mi- se-|re- re no-|bis, Je-|
 G2"^-natural" A4 c2 | _B3 B A2 c2- | c2 _B2 B2 G2 | A4 ^F4 |"^S" A4 A2 B2 | c3 c _B2 A2- | %83
w: su po- ten-|tis- si- me, mi-|* se- re- re|no- bis,|Je- su for-|tis- si- me, mi-|
 A2 G2 A2 _B2 | A4 A4 |"^T" G4 G2 A2 | c3 c B2 A2- | A2 G2 A2 _B2 | A4 A4 |"^S" A4 c4 | B2 A2 B4 | %91
w: * se- re- re|no- bis,|Je- su for-|tis- si- me, mi-|* se- re re|no- bis,|pro- pi-|ti- us es-|
 A4"^T" A4 | d2 B3 A A2- | A2 ^G2 A4 |"^S" A4 B2 c2 | B4 A4 |"^T" A6 A2 | G2 F2 G4 | G4"^S" A4 | %99
w: to, par-|ce no- bisJe- *|* * su,|ab o- mni|ma- lo,|li- be-|ra nos, Je-|su, per|
 G3 G A2 B2 | c2 c2 B4 | A4"^T" A4- | A2 F2 E2 A2 | G4 ^F4 |"^S" A6 B2 | c4 A4 |"^T" G4 A4 | %107
w: in- car- na- ti-|o- nem tu-|am, li-|* be- ra nos,|Je- su,|A- gnus|De- i,|qui tol-|
 G2 F2 E2 D2 | E4 ^F2 G2- | G2 A2 B2 c2 | A4 ^G4 |"^S" A6 ^G2 | A4 B4 |"^T" ^G4 A4 | B2 c2 A2 G2 | %115
w: lis pec- ca- ta|mun- di, par-|* ce no- bis,|Je- su,|A- gnus|De- i,|qui tol-|lis pec- ca- ta|
 G4 G2 G2 | A4 _B2 G2- | G2 F4 E2 | F4"^S" F4- | F2 G2 A4 | G2"^T" G2 G4 | A2 B2 c2 G2 | %122
w: mun- di, ex-|au- di nos|_ Je- *|su, A-|* gus De-|i, qui tol-|lis pec- ca- ta|
 A4 B2 c2- | c2 c2 c2 _B2 | A4 F4 | E4 E4 |"^S" A6 B2 | c4 B2 A2- | A2 ^G2 A2"^T" A2- | A2 B2 c4 | %130
w: mun- di, mi-|* se- re re|no- bis|Je- u,|Je- su|Chri- ste, au-|* di nos, Je-|* su Chri-|
 A2 G2 E2 E2 | ^F8 |] %132
w: ste ex- au- di-|nos.|
V:2
 z8 | z8 | z4 G4- | G2 G2 E2 D2 | E4 ^C4 | z8 | z8 | z4 ^C4 | D2 B, C2 B, A,2- | %9
w: ||Ky-|* ri- e e-|lei- son,|||Chri-|ste e- lei- * *|
 A,^G,/F,/"^#" G,2 A,4 | z8 | z4 z2 E2- | EE F4 D2 | E4 ^F4 | z8 | z4 z2 E2- | E2 F2 ED D2- | %17
w: * * * * son,||Ky-|* ri- e e-|lei- son,||Chri-|* ste au- * *|
 D2 ^C2 D4 | z8 | z8 | z4 E4 | D2 D2 ^C4 | D4 ^C4 | z8 | z8 | z8 | z8 | z4 E4 | E2 F2 D2 F2 | %29
w: * di nos,|||Chri-|ste ex- au-|di nos,|||||Pa-|ter de Coe- lis|
 F4 F2 F2- | F2 F2 D2 D2 | D4 D4 | z8 | z8 | z8 | z8 | z8 | E4 F2 F2 | D3 D D2 D2 | E4 D2 D2- | %40
w: De- us, mi-|* se- re- re|no- bis,||||||Fi- li re-|dem- ptor mun- di|De- us, mi|
 D2 C2 C2 _B,A,- | A,G,/F,/ G,2 A,4 | z8 | z8 | z8 | z8 | z8 | C6 C2 | C2 C4 C2 | D4 E2 F2- | %50
w: _ se- re- re no-|* * * * bis,||||||Spi- ri-|tus San- cte|De- us, mi-|
 F2 E2 D2 G,2 | A,4 B,4 | z8 | z8 | z8 | z8 | z8 | E4 F2 E2- | EE E2 E3 E | E4 E2 E2- | %60
w: * se- re- re|no- bis,||||||San- cta Tri-|* ni- tas u- ns|De- us, mi-|
 E2 D2 E2 D2 | D4 ^C4 | z8 | z8 | z8 | z8 | z8 | ^F4 F2 G2- | G2 G2 ^F2 G2 | ^F4 G2 C2- | %70
w: * se- re- re|no- bis,||||||Je- su Fi-|* li De- us|vi- vi, mi-|
 C2 E2 F2 F2 | E4 ^C4 | z8 | z8 | z8 | z8 | z4 D4 | E2 F4 E2 | G3 G F2 E2- | EE E3 D D2- | %80
w: * se- re- re|no- bis,-|||||Je-|su po- ten|tis- si- me, mi-|* se- re- re no-|
 D2 ^C2 D4 | z8 | z8 | z8 | z8 | D4 E2 F2 | E3 F G2 F2- | F2 E2 C2 G2 | E4 ^F4 | z8 | z8 | z4 F4- | %92
w: * * bis,|||||Je- su for-|tis- si- me, mi-|* se- re re|no- bis,|||par-|
 F2 D2 F2 F2 | E4 ^C4 | z8 | z8 | E6 F2 | D2"^-natural" C2 D4 | E4 z4 | z8 | z8 | z4 F4- | %102
w: * ce no- bis,|Je- su,|||li- be-|ra nos, Je-|su,|||li-|
 F2 C2 C2 A,D- | D^C/B,/ C2 D4 | z8 | z8 | E4 F4 | E2 D2 ^C2 DD- | D^C/B,/ C2 D2 E2- | %109
w: * be- ra nos, Je-|* * * * su,|||qui tol-|lis pec- ca- ta mun-|* * * * di, par-|
 E2 E2 G2 G2 | F4 E4 | z8 | z8 | E4 E4 |"^-natural" G2 G2 F2 E2 | E4 D2 D2 | F6 D2- | D2 A,2 C4 | %118
w: * ce no- bis,|Je- su,|||qui tol-|lis pec- ca- ta|mun- di, ex-|au- di|_ nos Je-|
 C4 z4 | z8 | z2 E2 D4 | F2 F2 G2 G2 | ^F4 G2 G2- | G2 G2 C2 G2 | F2 E2 D3 C | B,4 ^C4 | z8 | z8 | %128
w: su,||qui tol-|lis pec- ca- ta|mun- di, mi-|* se- re re|no- bis Je- *|* su|||
 z4 z2 E2- | E2 G2 G4 | F>E D4 ^C2 | D8 |] %132
w: Je-|* su Chri-|ste, ex- au- di-|nos.|
V:3
 z8 | z8 | z4 e4- | e2 d2 ^c2 d2 | B4 A4 | z8 | z8 | z4 A4 | A2 G2 A4 | B4 ^c4 | z8 | z4 z2 ^c2- | %12
w: ||Ky-|* ri- e e-|lei- son,|||Chri-|* ste e-|* lei-||Ky-|
 c2 d2 d2 d2 | ^c4 d4 | z8 | z4 z2 ^c2- | c2 d2 B4 | G4 A4 | z8 | z8 | z4 G4 | G2 F2 E4 | D4 E4 | %23
w: * ri- e e-|lei- son,||Chri-|* ste au-|di nos,|||Chri-|ste- ex- au-|di nos,-|
 z8 | z8 | z8 | z8 | z4 ^c4 | ^c2 d2 B2 c2 | d4 c2 d2- | d2 c2 _B2 A2 | _B4 A4 | z8 | z8 | z8 | %35
w: ||||Pa-|ter de Coe- lis|De- us, mi-|* se- re- re|no- bis,-||||
 z8 | z8 | ^c4 d2 A2 | B2 A2"^b" B2 d2 | ^c4 d2 A2- | A2 A2 G2 F2 | D4 E4 | z8 | z8 | z8 | z8 | %46
w: ||Fi- li re-|dem- ptor mun- di|De- us, mi-|* se- re- re|no- bis,|||||
 z8 | G6 G2 | G2 A4 c2 | B4 c2 c2- | c2 c2 AB c2- | cB A2 ^G4 | z8 | z8 | z8 | z8 | z8 | %57
w: |Spi- ri-|tus San- cte-|De- us, mi-|* se- re- re no-|* * * bis,-||||||
 ^c4 d2 c2- | cB B2"^-natural" c2 B2 | A4 G2 c2- | c2 B2 A3 A | _B4 A4 | z8 | z8 | z8 | z8 | z8 | %67
w: San- cta Tri-|* ni- tas u- nus|De- us, mi-|* se- re- re|no- bis,-||||||
 d4 d2 d2- | d2 e2 d2 B2 | d4 d2 A2- | A2 G2 d3 c | B4 A4 | z8 | z8 | z8 | z8 | z4 A4 | c2 c4 c2 | %78
w: Je- su Fi-|* li De- us|vi- vi, mi-|* se- re- re|no- b!s,|||||Je-|su po- ten-|
 d3 d d2 G2- | G2 G2 F2 D2 | E4 D4 | z8 | z8 | z8 | z8 | B4 c2 c2 | c3 c d2 d2- | dA c2 A2 d2- | %88
w: tis- si- me, mi-|* se- re- re|no- bis,|||||Je- su for-|tis- si me, mi-|* sere- re- re no-|
 d2 c2 d4 | z8 | z8 | z4 A4- | A2 B2 c2 d2 | B4 A4 | z8 | z8 | ^c6 d2 | B2"^-natural" c2 B4 | %98
w: * * bis,|||par-|* ce no- bis,|Je- su,|||li- be-|ra nos, Je-|
 c4 z4 | z8 | z8 | z4 A4- | A2 A2 G2 ^F2 | G4 A4 | z8 | z8 | c4 c4 | c2 A2 A2 F2 | %108
w: su,|||li-|* be- ra nos|Je- su,|||qui tol-|lis pec- ca- ta|
 A4 A2"^-natural""^-natural" c2- | c2 c2 d2 e2 | d4 B4 | z8 | z8 | B4 c4 | d2 e2 d2 B2 | c4 B2 B2 | %116
w: mun- di, par-|* ce no- bis,|Je- su,|||qui tol-|lis pe- ca- ta|mun- di, ex-|
 c4 d2 _B2 | A3 G/F/ G4 | A4 z4 | z8 | z2 c2 B4 | c2 d2 e2 B2 | d4 d2 e2- | e2 E2 A2"^b" B2 | %124
w: au- di nos|Je- * * *|su,||qui tol-|lis pec- ca- ta|mun- di, mi-|* se- re- re|
 c4 B2 A2- | A2"^#" G2 A4 | z8 | z8 | z4 z2 c2- | c2 d2 e4 | c2 B2 A3 A | A8 |] %132
w: no- bis Je-|* * su,|||Je-|* su Chri-|ste, ex- au- di|nos.|
V:4
 z8 | z8 | z4 C,4- | C,2 G,2 A,2 D,2 | E,4 A,,4 | z8 | z8 | z4 A,,4 | D,2 E,2 F,4 | E,4 A,,4 | z8 | %11
w: ||Ky-|* ri- e e-|lei- son,|||Chr-|* ste e-|* lei-||
 z4 z2 A,2- | A,2 D,2 _B,2 B,2 | A,4 D,4 | z8 | z4 z2 A,2- | A,2 D,2 G,4 | E,4 D,4 | z8 | z8 | %20
w: Ky-|* ri- e- e-|lei- son,||Chri-|* ter au-|di- nos,|||
 z4 C,4 | G,,2 D,2 A,,4 | _B,,4 A,,4 | z8 | z8 | z8 | z8 | z4 A,,4 | A,,2 D,2 G,2 F,2 | %29
w: Chri-|ste ex- au-|di nos,|||||Pa-|ter- de Coe- lis|
 _B,4 F,2 _B,,2- | B,,2 F,,2 G,,2 D,2 | G,,4 D,4 | z8 | z8 | z8 | z8 | z8 | A,4 D,2 D,2 | %38
w: De- us, mi-|* se- re- re|no- bis,-||||||Fi- li re-|
 G,2 D,2 G,2 _B,2 | A,4 D,2 D,2- | D,2 F,2 C,2 D,2 | _B,,4 A,,4 | z8 | z8 | z8 | z8 | z8 | %47
w: dem- ptor mun- di|De- us, mi-|* se- re- re|no- bis,||||||
 C,6 C,2 | C,2 F,4 A,2 | G,4 C,2 F,2- | F,2 C,2 D,2 E,2 | F,4 E,4 | z8 | z8 | z8 | z8 | z8 | %57
w: Spi- ri-|tus San- cte|De- us, mi-|* se- re- re|no- bis,||||||
 A,,4 D,2 A,2- | A,E, E,2 A,,2 ^G,,2 | A,,4 E,2 A,,2- | A,,2 B,,2 C,2 D,2 | G,,4 A,,4 | z8 | z8 | %64
w: San- cta Tri-|* ni- tas u- nus|De- us, mi-|* se- re- re|no- bis,|||
 z8 | z8 | z8 | D,4 D,2 G,2- | G,2 C,2 D,2 E,2 | D,4 G,2 F,2- | F,2 C,2 D,2 D,2 | E,4 A,,4 | z8 | %73
w: |||Je- su Fi-|* li De- usvi-|vi, mi- ra|* se- re- re|no- bis,||
 z8 | z8 | z8 | z4 D,4 | C,2 F,4 G,2 | G,3 G, D,2 C,2- | C,2 G,,2 _B,,2 B,,2 | A,,4 D,4 | z8 | z8 | %83
w: |||Je-|su po- ten-|tis- si- me, mi-|* se- re- re|no- bis,|||
 z8 | z8 | G,4 C,2 F,2 | A,3 A, G,2 D,2- | D,2 E,2 F,2 G,2 | A,4 D,4 | z8 | z8 | z4 D,4- | %92
w: ||Je- su for-|tis- si- me, mi-|* se- re- re|no- bis,|||par-|
 D,2 G,2 F,2 D,2 | E,4 A,,4 | z8 | z8 | A,6 D,2 | G,2 A,2 G,4 | C,4 z4 | z8 | z8 | z4 D,4- | %102
w: * ce no- bis,|Je- su,|||li- be-|ra nos, Je-|su,|||li-|
 D,2 F,2 C,2 D,2 | E,4 D,4 | z8 | z8 | C,4 F,4 | C,2 D,2 A,,2 _B,,2 | A,,4 D,2 C,2- | %109
w: * be- ra nos|Je- su,|||qui tol-|lis pec- ca- ta-|mun- di, par-|
 C,2 A,,2 G,,2 C,2 | D,4 E,4 | z8 | z8 | E,4 A,4 | G,2 C,2 D,2 E,2 | C,4 G,,2 G,2 | F,4 _B,,4 | %117
w: * ce no- bis,|Je- su,|||qui tol-|lis pec- ca- ta|mun- di, ex-|au- di|
 D,4 C,4 | F,,4 z4 | z8 | z2 C,2 G,4 | F,2 D,2 C,2 E,2 | D,4 G,,2 C,2- | C,2 C,2 F,2 G,2 | %124
w: nos Je-|su,||qui tol-|lis pec- ca- ta|mun- di, m-|* se- re re|
 A,4 D,4 | E,4 A,,4 | z8 | %127
w: no- bis|Je- su,||
"^Notes: editorial accidentals above the staff\n           original keys: Ut1st,Ut 3rd, Ut 4rth, Fa 4rth\n           note values have been halved." z8 | %128
w: |
 z4 z2 A,,2- | A,,2 G,,2 C,4 | F,,2 G,,2 A,,3 A,, | D,8 |] %132
w: Je-|* su Chri-|ste, es- au- di|_|

